;FLAVOR:Marlin
;TIME:1179
;Filament used: 3.37749m
;Layer height: 0.22
;MINX:75.2
;MINY:89.692
;MINZ:0.28
;MAXX:134.789
;MAXY:120.306
;MAXZ:48.02
;POSTPROCESSED
;Generated with Cura_SteamEngine 5.2.1
;
;

M140 S60


; Pre-Processed for Cancel-Object support by preprocess_cancellation v0.2.0
; 1 known objects
EXCLUDE_OBJECT_DEFINE NAME=3DBenchy_stl CENTER=107.304,105.045 POLYGON=[[75.2,89.692],[75.2,120.306],[134.789,120.306],[134.789,89.692]]
M105
M190 S60
M104 S200
M105
M109 S200
M82 ;absolute extrusion mode
G28 ; home all axes
 M117 Purge extruder
 G92 E0 ; reset extruder
 G1 Z1.0 F3000 ; move z up little to prevent scratching of surface
 G1 X2 Y20 Z0.3 F5000.0 ; move to start-line position
 G1 X2 Y175.0 Z0.3 F1500.0 E15 ; draw 1st line
 G1 X2 Y175.0 Z0.4 F5000.0 ; move to side a little
 G1 X2 Y20 Z0.4 F1500.0 E30 ; draw 2nd line
 G92 E0 ; reset extruder
 G1 Z1.0 F3000 ; move z up little to prevent scratching of surface
G92 E0
G92 E0
G1 F2400 E-0.8
;LAYER_COUNT:218
;LAYER:0
M107
M204 S10000
;MESH:3DBenchy.stl
EXCLUDE_OBJECT_START NAME=3DBenchy_stl
G0 F21600 X85.089 Y106.818 Z0.28
M204 S5000
;TYPE:WALL-INNER
G1 F2400 E0
G1 F3000 X85.092 Y107.173 E0.02431
G1 X84.868 Y107.697 E0.06333
G1 X84.575 Y108.073 E0.09598
G1 X84.024 Y108.49 E0.14329
G1 X83.407 Y108.704 E0.18801
G1 X82.78 Y108.789 E0.23134
G1 X82.125 Y108.77 E0.27621
G1 X81.356 Y108.577 E0.3305
G1 X80.731 Y108.236 E0.37926
G1 X80.317 Y107.876 E0.41683
G1 X79.964 Y107.443 E0.45508
G1 X79.846 Y107.247 E0.47075
G1 X79.846 Y109.978 E0.65776
G1 X79.956 Y110.387 E0.68676
G1 X80.063 Y110.555 E0.7004
G1 X80.333 Y110.795 E0.72514
G1 X80.696 Y110.928 E0.75161
G1 X104.492 Y112.382 E2.38414
G1 X105.139 Y112.391 E2.42845
G1 X105.669 Y112.377 E2.46475
G1 X106.39 Y112.328 E2.51424
G1 X107.138 Y112.236 E2.56585
G1 X107.648 Y112.149 E2.60127
G1 F2735 X108.064 Y112.008 E2.63427
G1 F2541.9 X108.469 Y111.927 E2.66765
G1 F2533.6 X108.976 Y111.782 E2.7104
G1 F2646.2 X109.252 Y111.743 E2.73204
G1 F2850.8 X109.925 Y111.532 E2.78287
G1 F2948.6 X110.857 Y111.158 E2.85284
G1 F3000 X111.771 Y110.699 E2.92287
G1 X112.462 Y110.31 E2.97717
G1 X113.325 Y109.739 E3.04803
G1 X114.098 Y109.146 E3.11475
G1 X114.471 Y108.817 E3.14881
G1 X113.682 Y108.821 E3.20284
G1 X113.221 Y108.813 E3.23441
G1 X112.626 Y108.835 E3.27518
G1 X112.328 Y108.785 E3.29587
G1 X111.984 Y108.633 E3.32162
G1 X111.658 Y108.271 E3.35498
G1 X111.489 Y107.814 E3.38835
G1 F3005.8 X111.469 Y107.521 E3.40842
G1 F2994.2 X111.578 Y106.945 E3.44864
G1 F2888.1 X111.866 Y106.382 E3.49362
G1 F2517.1 X112.319 Y105.648 E3.56402
G1 F2279.8 X112.602 Y105.254 E3.60773
G1 X112.299 Y105.19 E3.63564
G1 X111.98 Y105.048 E3.6671
G1 F2407.5 X111.883 Y104.964 E3.67805
G1 F2711 X111.336 Y106.243 E3.78346
G1 F3017.5 X111.106 Y106.817 E3.82556
G1 F3083.7 X110.915 Y107.389 E3.86573
G1 F3005.8 X110.53 Y108.469 E3.94409
G1 F3000 X110.124 Y109.515 E4.02093
G1 X109.839 Y110.168 E4.06972
G1 F2861.4 X109.448 Y110.702 E4.11723
G1 F2610.5 X108.795 Y111.191 E4.18143
G1 F2537.7 X108.361 Y111.334 E4.21843
G1 F2541.9 X107.956 Y111.403 E4.25163
G1 F2735 X107.267 Y111.231 E4.30497
G1 F3000 X107.003 Y111.054 E4.32673
G1 X106.718 Y110.683 E4.35877
G1 X106.563 Y110.242 E4.39078
G1 X106.569 Y109.802 E4.42091
G1 X106.692 Y109.497 E4.44343
G1 F3023.4 X106.858 Y109.271 E4.46249
G1 F2866.7 X107.021 Y109.125 E4.47817
G1 F2550.2 X107.647 Y108.825 E4.53409
G1 F2381.5 X107.821 Y108.73 E4.55119
G1 F2324.3 X108.205 Y107.704 E4.64801
G1 F2341.9 X107.873 Y106.743 E4.7372
G1 F2293.3 X107.375 Y105.579 E4.85061
G1 F2202 X107.105 Y104.914 E4.91757
G1 F2243.5 X106.645 Y105.693 E5.00041
G1 F2331.3 X107.041 Y106.452 E5.07585
G1 F2465 X107.287 Y106.902 E5.11859
G1 F2558.7 X107.453 Y107.37 E5.15846
G1 F2396.3 X107.499 Y107.695 E5.1866
G1 F2385.2 X107.414 Y108.079 E5.22047
G1 F2465 X107.278 Y108.343 E5.24522
G1 F2692.2 X106.97 Y108.595 E5.27559
G1 F3047.2 X106.568 Y108.783 E5.3055
G1 F3023.4 X106.185 Y108.836 E5.33178
G1 F3000 X105.775 Y108.752 E5.36043
G1 X105.638 Y108.688 E5.37079
G1 X105.313 Y108.426 E5.39937
G1 X105.105 Y108.122 E5.4246
G1 X104.882 Y108.421 E5.45014
G1 X104.675 Y108.611 E5.46938
G1 X104.285 Y108.792 E5.49882
G1 X104.046 Y108.816 E5.51527
G1 X103.591 Y108.729 E5.54699
G1 X103.151 Y108.414 E5.58405
G1 X103.03 Y108.562 E5.59714
G1 X102.551 Y108.917 E5.63797
G1 X102.048 Y109.079 E5.67415
G1 X101.48 Y109.072 E5.71305
G1 X101.257 Y109.023 E5.72869
G1 X100.841 Y108.832 E5.76003
G1 X100.55 Y108.607 E5.78522
G1 X100.266 Y108.241 E5.81694
G1 X100.148 Y107.929 E5.83978
G1 X99.883 Y108.136 E5.86281
G1 X99.535 Y108.328 E5.89003
G1 X98.761 Y108.571 E5.94558
G1 X97.888 Y108.622 E6.00546
G1 X97.039 Y108.615 E6.0636
G1 X96.382 Y108.641 E6.10863
G1 X96.047 Y108.537 E6.13265
G1 X95.764 Y108.35 E6.15587
G1 X95.642 Y108.208 E6.16869
G1 X95.436 Y107.765 E6.20215
G1 X95.38 Y107.4 E6.22743
G1 F3029.4 X95.395 Y106.73 E6.27288
G1 F3047.2 X95.22 Y107.281 E6.31186
G1 F3017.5 X94.901 Y107.81 E6.35391
G1 F3000 X94.536 Y108.194 E6.39019
G1 X93.99 Y108.549 E6.43479
G1 X93.521 Y108.706 E6.46865
G1 X93.114 Y108.777 E6.49695
G1 X92.247 Y108.775 E6.55632
G1 X91.477 Y108.584 E6.61064
G1 X91.013 Y108.3 E6.64789
G1 X90.685 Y107.933 E6.6816
G1 X90.511 Y107.533 E6.71147
G1 X90.489 Y106.979 E6.74944
G1 X90.525 Y106.755 E6.76497
G1 X90.617 Y106.569 E6.77918
G1 X90.862 Y106.247 E6.80689
G1 X91.012 Y106.143 E6.81939
G1 F2819.7 X91.711 Y105.919 E6.87286
G1 F2449.4 X91.965 Y105.901 E6.89422
G1 F2584.3 X91.484 Y105.561 E6.94104
G1 F3000 X91.216 Y105.159 E6.97413
G1 X91.171 Y105.004 E6.98518
G1 X91.174 Y104.406 E7.02613
G1 X91.413 Y103.916 E7.06346
G1 X91.16 Y103.826 E7.08185
G1 X90.782 Y103.511 E7.11555
G1 X90.631 Y103.276 E7.13467
G1 X90.245 Y103.592 E7.16883
G1 X89.843 Y103.714 E7.1976
G1 X88.969 Y103.763 E7.25754
G1 X88.965 Y106.528 E7.44688
G1 X88.987 Y107.421 E7.50805
G1 X88.874 Y107.882 E7.54056
G1 X88.551 Y108.348 E7.57938
G1 X88.275 Y108.529 E7.60198
G1 X88.002 Y108.615 E7.62158
G1 X87.598 Y108.641 E7.6493
G1 X87.136 Y108.505 E7.68228
G1 X86.847 Y108.314 E7.70601
G1 X86.612 Y107.97 E7.73453
G1 X86.537 Y107.744 E7.75084
G1 X86.559 Y107.035 E7.79941
G1 X86.549 Y106.345 E7.84667
G1 X86.553 Y104.696 E7.95959
G1 X86.546 Y104.104 E8.00013
G1 X86.57 Y103.705 E8.0275
G1 X85.942 Y103.785 E8.07085
G1 X85.561 Y103.75 E8.09705
G1 X85.15 Y103.564 E8.12794
G1 X84.969 Y103.389 E8.14518
G1 X84.848 Y103.614 E8.16268
G1 X84.535 Y103.925 E8.19289
G1 X84.331 Y104.044 E8.20906
G1 X83.821 Y104.141 E8.24461
G1 X83.219 Y103.976 E8.28736
G1 X82.655 Y103.639 E8.33235
G1 X82.496 Y103.618 E8.34333
G1 X82.297 Y103.659 E8.35724
G1 X82.081 Y103.801 E8.37494
G1 X81.931 Y104.066 E8.3958
G1 X81.818 Y104.611 E8.43391
G1 X81.808 Y105.213 E8.47514
G1 X81.859 Y105.633 E8.50411
G1 X82.017 Y106.052 E8.53478
G1 X82.183 Y106.216 E8.55075
G1 X82.472 Y106.316 E8.5717
G1 X82.815 Y106.267 E8.59542
G1 X83.157 Y105.976 E8.62617
G1 X83.635 Y105.811 E8.6608
G1 X83.962 Y105.81 E8.68319
G1 X84.46 Y105.968 E8.71897
G1 X84.716 Y106.153 E8.7406
G1 X84.885 Y106.343 E8.75801
G1 X85.041 Y106.617 E8.7796
G1 X85.089 Y106.818 E8.79375
M204 S10000
G1 F2400 E7.99375
G0 F21600 X85.245 Y106.801
G0 X83.343 Y105.669
G0 X82.589 Y106.097
G0 X82.068 Y105.541
G0 X82.054 Y104.551
G0 X82.221 Y103.995
G0 X84.927 Y103.856
G0 X86.321 Y103.972
G0 X86.836 Y107.779
G0 X87.583 Y108.35
G0 X88.34 Y108.151
G0 X89.199 Y103.976
G0 X90.81 Y102.979
G0 X90.855 Y102.272
G0 X91.428 Y101.736
G0 X91.973 Y101.522
G0 X93.147 Y101.448
G0 X93.66 Y101.545
G0 X94.296 Y101.865
G0 X94.662 Y102.256
G0 X95.07 Y104.471
G1 F2400 E8.79375
G0 F21600 X94.859 Y104.473
M204 S5000
G1 F3178.6 X94.943 Y104.578 E8.80244
G1 X95.176 Y105.029 E8.83525
G1 F3172.1 X95.402 Y105.793 E8.88685
G1 F3096 X95.404 Y104.117 E8.99806
G1 F2496.8 X95.281 Y103.685 E9.03501
G1 F2546.1 X94.94 Y104.365 E9.09639
G1 F3178.6 X94.859 Y104.473 E9.10512
M204 S10000
G0 F21600 X95.07 Y104.471
G0 X95.285 Y103.515
G0 X95.248 Y102.478
G0 X95.558 Y101.644
G0 X96.212 Y101.201
G0 X96.246 Y101.358
M204 S5000
G1 F3000 X96.514 Y101.308 E9.12378
G1 X98.021 Y101.314 E9.22698
G1 X98.676 Y101.368 E9.27199
G1 X99.24 Y101.483 E9.3114
G1 X99.751 Y101.687 E9.34908
G1 X100.18 Y101.971 E9.38431
G1 X100.427 Y102.203 E9.40751
G1 X100.721 Y102.573 E9.43988
G1 X101.038 Y103.148 E9.48484
G1 X101.247 Y103.816 E9.53277
G1 X101.374 Y104.684 E9.59284
G1 X101.308 Y105.696 E9.66228
G1 X101.63 Y105.638 E9.68469
G1 X102.094 Y105.657 E9.71649
G1 X102.666 Y105.889 E9.75876
G1 X102.901 Y106.055 E9.77846
G1 X103.144 Y106.31 E9.80258
G1 X103.287 Y106.543 E9.8213
G1 X103.756 Y105.75 E9.88439
G1 X103.17 Y104.719 E9.9656
G1 X102.974 Y104.23 E10.00167
G1 X102.945 Y103.991 E10.01816
G1 X102.964 Y103.626 E10.04319
G1 X103.04 Y103.396 E10.05977
G1 X103.281 Y103.077 E10.08715
G1 X103.612 Y102.855 E10.11444
G1 X104.136 Y102.747 E10.15108
G1 X104.366 Y102.768 E10.16689
G1 X104.771 Y102.936 E10.19692
G1 X105.178 Y103.34 E10.23619
G1 X105.466 Y103.037 E10.26481
G1 X105.89 Y102.808 E10.29781
G1 X106.107 Y102.75 E10.31319
G1 X106.586 Y102.805 E10.34621
G1 X107.003 Y103.069 E10.38001
G1 X107.152 Y103.259 E10.39654
G1 X107.29 Y103.07 E10.41257
G1 X107.681 Y102.815 E10.44453
G1 X108.32 Y102.764 E10.48843
G1 X108.828 Y102.943 E10.52531
G1 X109.186 Y103.264 E10.55824
G1 X109.395 Y103.66 E10.5889
G1 X109.534 Y104.156 E10.62417
G1 X109.676 Y103.751 E10.65356
G1 X109.849 Y103.411 E10.67968
G1 X110.242 Y102.948 E10.72127
G1 X110.688 Y102.763 E10.75433
G1 X111.102 Y102.771 E10.78269
G1 X111.345 Y102.867 E10.80058
G1 X111.763 Y103.203 E10.8373
G1 X111.915 Y103.042 E10.85247
G1 X112.341 Y102.82 E10.88536
G1 X112.913 Y102.742 E10.92489
G1 X115.019 Y102.743 E11.06911
G1 X115.309 Y102.791 E11.08923
G1 F2227.3 X115.833 Y102.844 E11.13781
G1 X115.586 Y102.289 E11.19384
G1 F3000 X115.178 Y101.855 E11.23463
G1 X114.536 Y101.231 E11.29594
G1 X113.957 Y100.747 E11.34761
G1 X113.458 Y100.364 E11.39069
G1 X112.883 Y99.962 E11.43873
G1 X112.326 Y99.61 E11.48385
G1 X111.74 Y99.283 E11.5298
G1 X111.223 Y99.021 E11.56949
G1 X110.581 Y98.726 E11.61787
G1 X109.821 Y98.434 E11.67363
G1 X109.237 Y98.239 E11.71579
G1 X108.468 Y98.029 E11.77037
G1 X107.697 Y97.851 E11.82456
G1 X106.887 Y97.73 E11.88064
G1 X106.33 Y97.667 E11.91903
G1 X105.544 Y97.618 E11.97295
G1 X105.006 Y97.61 E12.0098
G1 X104.429 Y97.624 E12.04932
G1 X80.718 Y99.069 E13.676
G1 X80.361 Y99.187 E13.70175
G1 X80.227 Y99.274 E13.71269
G1 X80.039 Y99.477 E13.73163
G1 X79.918 Y99.725 E13.75053
G1 X79.846 Y100.178 E13.78194
G1 X79.846 Y102.7 E13.95464
G1 X80.076 Y102.331 E13.98441
G1 X80.545 Y101.829 E14.03146
G1 X81.285 Y101.381 E14.09069
G1 X82.057 Y101.176 E14.14539
G1 X82.639 Y101.135 E14.18534
G1 X83.116 Y101.168 E14.21808
G1 X83.658 Y101.297 E14.25623
G1 X84.093 Y101.49 E14.28882
G1 X84.485 Y101.77 E14.32181
G1 X84.75 Y102.028 E14.34714
G1 X85 Y101.654 E14.37794
G1 X85.254 Y101.439 E14.40073
G1 X85.647 Y101.283 E14.42968
G1 X86.488 Y101.317 E14.48732
G1 X87.106 Y101.307 E14.52964
G1 X89.366 Y101.312 E14.6844
G1 X89.904 Y101.325 E14.72126
G1 X90.195 Y101.392 E14.7417
G1 X90.445 Y101.528 E14.76119
G1 X90.589 Y101.657 E14.77443
G1 X90.746 Y101.926 E14.79576
G1 X90.959 Y101.702 E14.81693
G1 X91.342 Y101.448 E14.8484
G1 X91.879 Y101.235 E14.88796
G1 X92.387 Y101.15 E14.92323
G1 X93.177 Y101.149 E14.97732
G1 X93.78 Y101.262 E15.01933
G1 X94.417 Y101.581 E15.06812
G1 X94.834 Y102.001 E15.10865
G1 F2711 X95.235 Y102.562 E15.1609
G1 X95.484 Y101.93 E15.21237
G1 F3000 X95.758 Y101.602 E15.24164
G1 X96.246 Y101.358 E15.279
M204 S10000
G0 F21600 X96.051 Y102.005
M204 S5000
;TYPE:WALL-OUTER
G1 F3000 X96.365 Y101.842 E15.30154
G1 X96.545 Y101.805 E15.31324
G1 X97.98 Y101.81 E15.40465
G1 X98.635 Y101.864 E15.44652
G1 X99.035 Y101.942 E15.47248
G1 X99.485 Y102.108 E15.50303
G1 X99.845 Y102.34 E15.53031
G1 X100.06 Y102.54 E15.54902
G1 X100.342 Y102.898 E15.57805
G1 X100.569 Y103.328 E15.60902
G1 X100.762 Y103.942 E15.65002
G1 X100.872 Y104.681 E15.69761
G1 X100.813 Y105.653 E15.75964
G1 X100.685 Y106.24 E15.79791
G1 F2453.2 X100.631 Y106.644 E15.82966
G1 X101.222 Y106.252 E15.88491
G1 F3000 X101.545 Y106.145 E15.90658
G1 X102.006 Y106.147 E15.93595
G1 X102.463 Y106.343 E15.96762
G1 X102.783 Y106.653 E15.996
G1 F3044.4 X102.98 Y107.152 E16.02968
G1 F3207.1 X102.968 Y107.561 E16.05406
G1 F3164.8 X102.822 Y108.019 E16.08309
G1 F3000 X102.672 Y108.216 E16.09886
G1 X102.329 Y108.471 E16.12608
G1 X101.992 Y108.584 E16.14873
G1 X101.511 Y108.575 E16.17937
G1 X101.139 Y108.433 E16.20473
G1 X100.898 Y108.251 E16.22397
G1 X100.697 Y107.992 E16.24486
G1 X100.532 Y107.486 E16.27876
G1 F2444.8 X100.515 Y106.927 E16.32247
G1 F2404 X100.204 Y107.169 E16.3538
G1 F2938.8 X100.011 Y107.396 E16.37317
G1 F3000 X99.639 Y107.701 E16.40382
G1 X99.352 Y107.861 E16.42475
G1 X98.649 Y108.079 E16.47163
G1 X97.843 Y108.124 E16.52305
G1 X97.03 Y108.117 E16.57484
G1 X96.413 Y108.144 E16.61418
G1 X96.304 Y108.11 E16.62146
G1 X96.059 Y107.935 E16.64064
G1 X95.916 Y107.632 E16.66198
G1 X95.88 Y107.425 E16.67536
G1 X95.89 Y106.666 E16.72371
G1 X95.885 Y103.517 E16.92431
G1 X95.893 Y103.05 E16.95406
G1 X95.852 Y102.529 E16.98735
G1 X95.887 Y102.248 E17.00539
G1 X96.051 Y102.005 E17.02406
M204 S10000
G0 F21600 X96.228 Y101.913
G0 X95.908 Y101.33
G0 X95.297 Y101.817
G0 X94.35 Y101.444
G0 X93.771 Y101.159
G0 X93.184 Y101.048
G0 X92.358 Y101.048
G0 X91.864 Y101.135
G0 X91.356 Y101.333
G0 X90.769 Y101.711
G0 X91 Y102.402
M204 S5000
G1 F2880 X91.203 Y102.15 E17.04553
G1 F3000 X91.525 Y101.912 E17.07104
G1 X92.034 Y101.713 E17.10585
G1 X92.418 Y101.647 E17.13067
G1 X93.149 Y101.651 E17.17724
G1 X93.648 Y101.754 E17.20969
G1 X94.156 Y102.011 E17.24596
G1 X94.511 Y102.4 E17.2795
G1 X94.649 Y102.701 E17.3006
G1 X94.711 Y103.142 E17.32896
G1 X94.684 Y103.582 E17.35704
G1 X94.617 Y103.909 E17.37831
G1 X94.514 Y104.136 E17.39419
G1 X94.298 Y104.365 E17.41424
G1 X94.056 Y104.497 E17.4318
G1 X94.48 Y104.764 E17.46372
G1 X94.713 Y105.164 E17.4932
G1 X94.917 Y105.879 E17.54057
G1 X94.951 Y106.317 E17.56855
G1 X94.91 Y106.638 E17.58916
G1 X94.771 Y107.054 E17.6171
G1 X94.512 Y107.498 E17.64985
G1 X94.223 Y107.806 E17.67675
G1 X93.793 Y108.083 E17.70933
G1 X93.434 Y108.216 E17.73372
G1 X93.058 Y108.282 E17.75804
G1 X92.33 Y108.278 E17.80441
G1 X91.672 Y108.118 E17.84755
G1 X91.343 Y107.927 E17.87178
G1 X91.127 Y107.699 E17.89179
G1 X90.992 Y107.402 E17.91257
G1 X90.998 Y106.911 E17.94385
G1 X91.196 Y106.617 E17.96643
G1 X91.623 Y106.45 E17.99563
G1 X92.09 Y106.511 E18.02563
G1 X92.639 Y106.88 E18.06777
G1 X92.762 Y106.925 E18.07611
G1 X93.028 Y106.872 E18.09339
G1 X93.235 Y106.716 E18.1099
G1 X93.329 Y106.568 E18.12107
G1 X93.384 Y106.324 E18.137
G1 X93.316 Y106.014 E18.15722
G1 X93.136 Y105.744 E18.17789
G1 X92.934 Y105.574 E18.19471
G1 X92.648 Y105.447 E18.21464
G1 X92.043 Y105.323 E18.25398
G1 X91.818 Y105.191 E18.2706
G1 X91.662 Y104.919 E18.29057
G1 X91.681 Y104.476 E18.31881
G1 F2903.2 X91.912 Y104.079 E18.34905
G1 F2608.7 X92.1 Y103.936 E18.36635
G1 F2345.3 X92.668 Y103.778 E18.41439
G1 F2271.3 X92.867 Y103.676 E18.4332
G1 F2282.1 X93.006 Y103.457 E18.45493
G1 X92.999 Y103.308 E18.46742
G1 X92.927 Y103.173 E18.48023
G1 X92.757 Y103.096 E18.49586
G1 F2364.5 X92.567 Y103.115 E18.51129
G1 F2539.7 X91.835 Y103.469 E18.57247
G1 F2807 X91.404 Y103.392 E18.60228
G1 F3000 X91.157 Y103.183 E18.62289
G1 F2932.8 X90.984 Y102.871 E18.64613
G1 F2758.6 X90.948 Y102.528 E18.67003
G1 F2711.9 X91 Y102.402 E18.67963
M204 S10000
G0 F21600 X91.125 Y102.246
G0 X90.769 Y101.711
G0 X90.758 Y102.57
G0 X91.719 Y105.839
G0 X91.965 Y105.901
M204 S5000
;TYPE:WALL-INNER
G1 F2189.5 X92.462 Y106.027 E18.72774
G1 F2086.3 X92.672 Y106.158 E18.75211
M204 S10000
G1 F2400 E17.95211
G0 F21600 X92.643 Y106.192
G0 X91.604 Y106.239
G0 X91.077 Y106.432
G0 X90.79 Y106.848
G0 X90.784 Y107.428
G0 X91.229 Y108.097
G0 X92.292 Y108.477
G0 X93.07 Y108.482
G0 X93.858 Y108.276
G0 X94.353 Y107.959
G0 X94.945 Y107.158
G0 X95.315 Y105.174
G1 F2400 E18.75211
G0 F21600 X95.402 Y105.841
M204 S5000
G1 F3096 X95.395 Y106.73 E18.8111
M204 S10000
G0 F21600 X95.307 Y107.268
G0 X95.282 Y103.695
G0 X95.281 Y103.685
M204 S5000
G1 F2156 X95.3 Y103.067 E18.87001
