; HEADER_BLOCK_START
; generated by OrcaSlicer 1.6.3 on 2023-07-25 at 14:31:04
; total layer number: 218
; HEADER_BLOCK_END

; THUMBNAIL_BLOCK_START
; THUMBNAIL_BLOCK_END

; external perimeters extrusion width = 0.42mm
; perimeters extrusion width = 0.45mm
; infill extrusion width = 0.45mm
; solid infill extrusion width = 0.42mm
; top infill extrusion width = 0.42mm
; first layer extrusion width = 0.50mm

; EXECUTABLE_BLOCK_START
EXCLUDE_OBJECT_DEFINE NAME=3DBenchy.stl_id_0_copy_0 CENTER=100,100 POLYGON=[[69.9995,90.816],[70.0025,90.755],[70.0065,90.699],[70.0115,90.646],[70.0135,90.63],[70.0195,90.583],[70.0285,90.525],[70.0455,90.436],[70.0585,90.379],[70.0735,90.322],[70.0805,90.296],[70.0975,90.239],[70.1265,90.155],[70.1405,90.118],[70.1625,90.064],[70.1695,90.047],[70.1855,90.01],[70.2095,89.958],[70.2305,89.916],[70.2635,89.854],[70.2785,89.827],[70.2905,89.806],[70.3395,89.727],[70.3575,89.7],[70.3715,89.679],[70.4055,89.631],[70.4405,89.584],[70.4835,89.531],[70.5085,89.501],[70.5385,89.466],[70.5785,89.423],[70.5925,89.408],[70.6005,89.4],[70.6415,89.359],[70.6615,89.34],[70.7045,89.3],[70.7375,89.271],[70.7825,89.234],[70.7935,89.225],[70.8285,89.197],[70.8865,89.154],[70.9345,89.121],[70.9785,89.092],[71.0445,89.052],[71.0715,89.036],[71.1235,89.008],[71.1485,88.995],[71.1755,88.981],[71.1975,88.97],[71.2535,88.944],[71.3115,88.919],[71.3615,88.899],[71.4165,88.879],[71.4285,88.875],[71.4715,88.861],[71.4845,88.857],[71.5405,88.84],[71.5475,88.838],[71.5845,88.828],[71.5965,88.825],[71.6245,88.818],[71.6405,88.814],[71.7105,88.799],[71.7395,88.794],[71.7685,88.789],[71.7975,88.784],[99.8125,84.886],[100.055,84.853],[100.299,84.821],[100.543,84.791],[100.882,84.752],[101.105,84.728],[101.35,84.702],[101.596,84.678],[101.842,84.656],[102.087,84.635],[102.253,84.622],[102.333,84.616],[102.523,84.602],[102.579,84.598],[102.826,84.581],[102.987,84.571],[103.071,84.566],[103.233,84.557],[103.489,84.544],[103.597,84.539],[103.619,84.538],[103.755,84.532],[103.906,84.526],[104.05,84.521],[104.167,84.517],[104.233,84.515],[104.342,84.512],[104.46,84.509],[104.548,84.507],[104.689,84.504],[104.881,84.501],[105.062,84.499],[105.18,84.498],[105.578,84.498],[105.934,84.5],[106.369,84.508],[106.45,84.51],[106.805,84.52],[106.912,84.524],[107.24,84.537],[107.676,84.558],[108.009,84.578],[108.092,84.583],[108.203,84.59],[108.375,84.602],[108.495,84.611],[108.641,84.622],[108.728,84.629],[108.909,84.644],[109.039,84.655],[109.832,84.78],[109.841,84.782],[110.269,84.888],[110.377,84.915],[110.595,84.97],[110.737,85.007],[110.813,85.027],[110.967,85.068],[111.248,85.145],[111.424,85.195],[111.68,85.27],[111.896,85.334],[112.111,85.4],[112.332,85.47],[112.558,85.543],[112.752,85.607],[113.008,85.694],[113.178,85.753],[113.233,85.772],[113.4,85.832],[113.601,85.905],[113.822,85.987],[114.033,86.067],[114.233,86.145],[114.343,86.188],[114.443,86.228],[114.453,86.232],[114.662,86.316],[114.871,86.402],[114.926,86.425],[115.134,86.513],[115.341,86.603],[115.547,86.693],[115.957,86.879],[116.16,86.974],[116.363,87.07],[116.565,87.168],[116.766,87.267],[116.967,87.367],[117.166,87.469],[117.366,87.572],[117.563,87.677],[117.762,87.783],[117.957,87.89],[118.153,87.999],[118.348,88.11],[118.543,88.221],[118.737,88.334],[118.93,88.449],[119.123,88.565],[119.314,88.683],[119.505,88.801],[119.696,88.922],[119.885,89.043],[120.075,89.167],[120.262,89.291],[120.45,89.417],[120.637,89.544],[120.824,89.673],[121.008,89.803],[121.193,89.934],[121.376,90.067],[121.56,90.201],[121.742,90.337],[121.923,90.474],[122.104,90.612],[122.284,90.752],[122.463,90.893],[122.642,91.036],[122.82,91.18],[122.998,91.325],[123.173,91.472],[123.523,91.77],[123.697,91.921],[123.87,92.074],[124.042,92.228],[124.215,92.384],[124.328,92.489],[124.498,92.645],[124.665,92.803],[124.832,92.962],[124.996,93.122],[125.161,93.283],[125.325,93.445],[125.486,93.609],[125.647,93.773],[125.807,93.939],[125.966,94.106],[126.124,94.274],[126.282,94.443],[126.438,94.614],[126.592,94.785],[126.745,94.958],[126.898,95.132],[127.05,95.306],[127.2,95.483],[127.349,95.66],[127.498,95.838],[127.645,96.017],[127.791,96.198],[127.936,96.38],[128.081,96.563],[128.223,96.747],[128.364,96.932],[128.505,97.118],[128.645,97.305],[128.784,97.493],[128.921,97.683],[129.056,97.874],[129.192,98.065],[129.326,98.258],[129.458,98.452],[129.589,98.647],[129.618,98.692],[129.651,98.745],[129.682,98.798],[129.713,98.852],[129.742,98.907],[129.769,98.962],[129.819,99.076],[129.834,99.117],[129.856,99.175],[129.876,99.233],[129.895,99.292],[129.912,99.351],[129.929,99.413],[129.943,99.47],[129.954,99.53],[129.966,99.593],[129.975,99.652],[129.984,99.713],[129.991,99.774],[129.995,99.836],[129.999,99.905],[130,99.966],[130,100.027],[129.999,100.088],[129.996,100.149],[129.992,100.209],[129.986,100.27],[129.977,100.331],[129.968,100.391],[129.958,100.449],[129.945,100.512],[129.932,100.569],[129.916,100.632],[129.901,100.686],[129.883,100.745],[129.863,100.803],[129.842,100.861],[129.82,100.918],[129.797,100.974],[129.771,101.03],[129.744,101.086],[129.716,101.14],[129.686,101.194],[129.655,101.248],[129.624,101.301],[129.589,101.353],[129.472,101.527],[129.339,101.721],[129.206,101.914],[129.071,102.106],[128.936,102.297],[128.797,102.487],[128.659,102.676],[128.52,102.864],[128.38,103.05],[128.237,103.236],[128.095,103.42],[127.95,103.604],[127.658,103.968],[127.51,104.148],[127.361,104.328],[127.21,104.506],[127.06,104.683],[126.907,104.86],[126.752,105.035],[126.597,105.209],[126.482,105.337],[126.325,105.509],[126.167,105.68],[126.008,105.85],[125.848,106.018],[125.688,106.186],[125.526,106.352],[125.2,106.68],[125.034,106.841],[124.869,107.002],[124.703,107.161],[124.535,107.319],[124.367,107.475],[124.199,107.63],[124.028,107.784],[123.857,107.937],[123.686,108.089],[123.512,108.239],[123.338,108.388],[123.164,108.536],[122.987,108.682],[122.811,108.827],[122.632,108.971],[122.454,109.114],[122.275,109.256],[122.093,109.396],[121.911,109.535],[121.728,109.673],[121.544,109.81],[121.359,109.945],[121.173,110.08],[120.799,110.344],[120.61,110.474],[120.421,110.603],[120.23,110.731],[120.039,110.857],[119.846,110.982],[119.652,111.106],[119.458,111.228],[119.263,111.349],[119.067,111.469],[118.869,111.587],[118.672,111.704],[118.472,111.819],[118.272,111.934],[118.072,112.046],[117.87,112.158],[117.595,112.307],[117.395,112.412],[117.196,112.516],[116.996,112.618],[116.796,112.719],[116.595,112.818],[116.392,112.916],[116.19,113.012],[115.987,113.107],[115.783,113.2],[115.579,113.292],[115.374,113.383],[115.169,113.472],[114.963,113.559],[114.756,113.645],[114.666,113.682],[114.549,113.73],[114.341,113.813],[114.122,113.898],[114.003,113.944],[113.704,114.057],[113.493,114.134],[113.293,114.206],[113.071,114.284],[112.884,114.348],[112.869,114.353],[112.656,114.424],[112.443,114.494],[112.206,114.57],[112.005,114.632],[111.979,114.64],[111.751,114.709],[111.523,114.776],[111.295,114.841],[111.142,114.884],[111.066,114.905],[110.924,114.943],[110.706,115.001],[110.606,115.027],[110.488,115.057],[110.269,115.112],[109.843,115.218],[109.316,115.319],[109.306,115.32],[109.05,115.344],[109.003,115.348],[108.81,115.364],[108.725,115.371],[108.561,115.384],[108.481,115.39],[108.134,115.414],[107.688,115.441],[107.649,115.443],[107.264,115.462],[107.126,115.468],[106.778,115.481],[106.564,115.487],[106.343,115.493],[105.907,115.5],[105.521,115.502],[105.177,115.502],[104.877,115.499],[104.821,115.498],[104.599,115.494],[104.456,115.491],[104.338,115.488],[104.166,115.483],[104.076,115.48],[103.93,115.475],[103.752,115.468],[103.728,115.467],[103.57,115.46],[103.462,115.455],[103.332,115.448],[103.133,115.437],[102.889,115.423],[102.644,115.407],[102.629,115.406],[102.342,115.385],[102.096,115.366],[101.849,115.345],[101.667,115.328],[101.603,115.322],[101.423,115.305],[101.179,115.28],[101.111,115.273],[100.935,115.254],[100.619,115.218],[100.373,115.188],[100.204,115.166],[99.8825,115.124],[71.8275,111.22],[71.7925,111.215],[71.7425,111.207],[71.6855,111.196],[71.6535,111.189],[71.5965,111.175],[71.5845,111.172],[71.5475,111.162],[71.5365,111.159],[71.4805,111.142],[71.4285,111.125],[71.4165,111.121],[71.3615,111.101],[71.3115,111.081],[71.2535,111.056],[71.1975,111.03],[71.1555,111.009],[71.1045,110.982],[71.0865,110.972],[71.0445,110.948],[70.9925,110.917],[70.9785,110.908],[70.9435,110.885],[70.9345,110.879],[70.8865,110.846],[70.8475,110.817],[70.8395,110.811],[70.7935,110.775],[70.7555,110.744],[70.7485,110.738],[70.7045,110.7],[70.6615,110.66],[70.6405,110.64],[70.5925,110.592],[70.5575,110.555],[70.5385,110.534],[70.5185,110.511],[70.4805,110.466],[70.4445,110.42],[70.4305,110.402],[70.4095,110.374],[70.4065,110.37],[70.3725,110.322],[70.3575,110.3],[70.3425,110.278],[70.3085,110.224],[70.2785,110.173],[70.2505,110.122],[70.2305,110.084],[70.2185,110.06],[70.1955,110.012],[70.1695,109.954],[70.1485,109.903],[70.1275,109.849],[70.1085,109.793],[70.1075,109.79],[70.0905,109.738],[70.0745,109.682],[70.0595,109.625],[70.0455,109.564],[70.0345,109.507],[70.0255,109.454],[70.0245,109.448],[70.0165,109.396],[70.0115,109.353],[70.0085,109.325],[70.0025,109.245],[70.0005,109.208],[69.9995,109.179],[69.9995,90.816]]
M73 P0 R26
;TYPE:Custom
M190 S60
M109 S200
G28 ; h1ome all axes
 M117 ;Purge extruder
 G92 E0 ; reset extruder
 G1 Z1.0 F3000 ; move z up little to prevent scratching of surface
 G1 X2 Y20 Z0.3 F5000.0 ; move to start-line position
 G1 X2 Y175.0 Z0.3 F1500.0 E15 ; draw 1st line
 G1 X2 Y175.0 Z0.4 F5000.0 ; move to side a little
M73 P0 R25
 G1 X2 Y20 Z0.4 F1500.0 E30 ; draw 2nd line
 G92 E0 ; reset extruder
 G1 Z1.0 F3000 ; move z up little to prevent scratching of surface
G90
G21
M83 ; use relative distances for extrusion
; filament start gcode
M106 S0
;LAYER_CHANGE
;Z:0.22
;HEIGHT:0.22
;BEFORE_LAYER_CHANGE
;0.22
G92 E0

G1 E-1 F5400
;AFTER_LAYER_CHANGE
;0.22
M204 S3000
; printing object 3DBenchy.stl id:0 copy 0
EXCLUDE_OBJECT_START NAME=3DBenchy.stl_id_0_copy_0
G1 X106.764 Y98.151 F30000
G1 Z.22
G1 E1 F5400
;TYPE:Inner wall
;WIDTH:0.499999
G1 F3000
G1 X106.479 Y97.859 E.01657
G1 X106.049 Y97.681 E.01888
G1 X105.683 Y97.673 E.01486
G1 X105.305 Y97.805 E.01625
G1 X104.993 Y98.052 E.01619
G1 X104.742 Y98.382 E.01679
;WIDTH:0.503592
G1 X104.552 Y98.778 E.018
G1 X104.409 Y98.421 E.01571
;WIDTH:0.499999
G1 X104.18 Y98.089 E.0164
G1 X103.829 Y97.822 E.01791
G1 X103.389 Y97.662 E.01899
G1 X102.924 Y97.662 E.01889
G1 X102.541 Y97.793 E.01642
G1 X102.31 Y97.933 E.01096
G1 X102.155 Y98.137 E.01041
G1 X101.818 Y97.827 E.01859
G1 X101.374 Y97.661 E.01925
G1 X100.954 Y97.684 E.01708
G1 X100.598 Y97.863 E.01616
G1 X100.309 Y98.099 E.01512
G1 X100.179 Y98.271 E.00876
G1 X100.097 Y98.161 E.00555
G1 X99.748 Y97.832 E.01946
G1 X99.419 Y97.704 E.01433
G1 X99.061 Y97.639 E.01475
G1 X98.571 Y97.756 E.02045
G1 X98.296 Y97.92 E.01298
G1 X97.976 Y98.276 E.01945
G1 X97.839 Y98.635 E.0156
G1 X97.84 Y99.148 E.02081
G1 X97.996 Y99.588 E.01895
G1 X98.25 Y100.09 E.02283
;WIDTH:0.538193
G1 X98.284 Y100.188 E.00458
;WIDTH:0.576387
G1 X98.318 Y100.287 E.00493
;WIDTH:0.614581
G1 X98.352 Y100.385 E.00529
;WIDTH:0.652775
G1 X98.386 Y100.483 E.00564
G1 X98.563 Y100.753 E.01751
;WIDTH:0.622898
G1 X98.27 Y101.299 E.03197
G1 X98.166 Y101.128 E.01032
;WIDTH:0.652775
G1 X97.954 Y100.884 E.01752
G1 X97.858 Y100.843 E.00564
;WIDTH:0.614581
G1 X97.763 Y100.802 E.00529
;WIDTH:0.576387
G1 X97.667 Y100.761 E.00493
;WIDTH:0.538193
G1 X97.572 Y100.72 E.00458
;WIDTH:0.499999
G1 X97.149 Y100.576 E.01813
G1 X96.691 Y100.565 E.01858
G1 X96.397 Y100.626 E.01219
G1 X96.439 Y100.291 E.01366
G1 X96.461 Y99.781 E.02073
G1 X96.413 Y99.221 E.0228
G1 X96.329 Y98.681 E.02221
G1 X96.177 Y98.202 E.02037
G1 X95.901 Y97.643 E.02532
G1 X95.543 Y97.163 E.02432
G1 X95.151 Y96.807 E.02149
G1 X94.662 Y96.516 E.02308
G1 X94.152 Y96.342 E.02187
G1 X93.541 Y96.235 E.02518
G1 X92.976 Y96.197 E.02301
G1 X91.74 Y96.181 E.05017
G1 X91.371 Y96.216 E.01502
G1 X90.858 Y96.394 E.02204
G1 X90.518 Y96.688 E.01824
G1 X90.343 Y96.983 E.0139
;WIDTH:0.526031
G1 X90.279 Y97.195 E.00954
;WIDTH:0.552062
G1 X90.215 Y97.408 E.01005
G1 X90.103 Y97.217 E.01001
;WIDTH:0.526031
G1 X89.991 Y97.027 E.0095
;WIDTH:0.499999
G1 X89.699 Y96.698 E.01783
G1 X89.327 Y96.395 E.01946
G1 X88.698 Y96.132 E.02769
G1 X88.097 Y96.033 E.02472
G1 X87.53 Y96.027 E.02303
G1 X86.953 Y96.107 E.02361
G1 X86.409 Y96.296 E.02338
G1 X86.17 Y96.442 E.01139
G1 X85.764 Y96.779 E.02139
G1 X85.71 Y96.687 E.00433
G1 X85.497 Y96.466 E.01242
G1 X85.25 Y96.317 E.01174
G1 X84.627 Y96.193 E.02576
G1 X81.521 Y96.203 E.12608
G1 X80.723 Y96.174 E.0324
G1 X80.229 Y96.338 E.02113
G1 X79.906 Y96.643 E.01804
G1 X79.731 Y96.905 E.01277
G1 X79.329 Y96.52 E.02259
G1 X78.723 Y96.198 E.02786
G1 X78.255 Y96.078 E.01962
G1 X77.373 Y96.029 E.03586
G1 X76.758 Y96.116 E.02518
G1 X76.427 Y96.227 E.01418
G1 X75.903 Y96.457 E.02324
G1 X75.304 Y96.905 E.03035
G1 X74.971 Y97.286 E.02056
G1 X74.978 Y95.224 E.08369
G1 X75.065 Y94.714 E.021
G1 X75.253 Y94.447 E.01325
G1 X75.529 Y94.279 E.0131
G1 X75.86 Y94.193 E.01389
G1 X99.201 Y92.773 E.94906
G1 X100.281 Y92.749 E.04386
G1 X101.079 Y92.784 E.0324
G1 X101.853 Y92.862 E.03158
G1 X102.634 Y92.986 E.03209
G1 X103.677 Y93.223 E.0434
G1 X104.437 Y93.449 E.03219
G1 X105.449 Y93.824 E.0438
G1 X106.259 Y94.192 E.03613
G1 X107.13 Y94.66 E.04014
G1 X107.775 Y95.061 E.0308
G1 X108.722 Y95.742 E.04735
G1 X109.47 Y96.372 E.03966
G1 X110.383 Y97.286 E.05247
;WIDTH:0.548015
G1 X110.438 Y97.381 E.00489
;WIDTH:0.596031
G1 X110.492 Y97.475 E.00536
;WIDTH:0.644047
G1 X110.546 Y97.57 E.00583
;WIDTH:0.692062
G1 X110.6 Y97.664 E.0063
G1 X110.46 Y97.656 E.00813
;WIDTH:0.644047
G1 X110.32 Y97.648 E.00752
;WIDTH:0.596031
G1 X110.179 Y97.64 E.00692
;WIDTH:0.548015
G1 X110.039 Y97.633 E.00631
;WIDTH:0.499999
G1 X107.904 Y97.637 E.08667
G1 X107.279 Y97.771 E.02594
G1 X106.954 Y97.96 E.01525
G1 X106.764 Y98.151 E.01092
G1 E-.7 F5400
;WIPE_START
G1 F3000
G1 X106.479 Y97.859 E-.05818
G1 X106.049 Y97.681 E-.06628
G1 X105.683 Y97.673 E-.05216
G1 X105.305 Y97.805 E-.05706
G1 X105.023 Y98.028 E-.05132
;WIPE_END
G1 E-.015 F5400
G1 X110.069 Y101.29 F30000
G1 E1 F5400
G1 F3000
G1 X110.823 Y100.289 E.05086
G1 X111.156 Y99.733 E.02632
G1 X111.299 Y99.126 E.02531
;WIDTH:0.541502
G1 X111.308 Y98.987 E.00615
;WIDTH:0.583005
G1 X111.316 Y98.849 E.00667
;WIDTH:0.624508
G1 X111.324 Y98.71 E.00718
;WIDTH:0.66601
G1 X111.332 Y98.571 E.0077
G1 X111.407 Y98.641 E.00568
;WIDTH:0.623404
G1 X111.482 Y98.71 E.00529
;WIDTH:0.580797
G1 X111.557 Y98.78 E.0049
;WIDTH:0.53819
G1 X111.993 Y99.413 E.0338
;WIDTH:0.499999
G1 X112.262 Y99.913 E.02307
G1 X112.23 Y100.178 E.01082
G1 X111.961 Y100.655 E.02221
G1 X111.112 Y101.943 E.06265
G1 X111.066 Y101.862 E.0038
G1 X110.741 Y101.518 E.01919
G1 X110.069 Y101.29 E.02882
G1 E-.7 F5400
;WIPE_START
G1 F3000
G1 X110.823 Y100.289 E-.17856
G1 X111.156 Y99.733 E-.0924
G1 X111.179 Y99.637 E-.01404
;WIPE_END
M73 P1 R25
G1 E-.015 F5400
G1 X90.266 Y100.005 F30000
G1 E1 F5400
;WIDTH:0.525148
G1 F3000
G1 X90.037 Y99.74 E.01503
;WIDTH:0.496533
G1 X89.807 Y99.475 E.01413
;WIDTH:0.508598
G1 X89.909 Y99.374 E.00594
;WIDTH:0.549278
G1 X90.011 Y99.273 E.00646
;WIDTH:0.589958
G1 X90.113 Y99.172 E.00698
;WIDTH:0.630638
G1 X90.215 Y99.071 E.00751
G1 X90.235 Y99.17 E.00533
;WIDTH:0.589958
G1 X90.255 Y99.27 E.00496
;WIDTH:0.549278
G1 X90.276 Y99.37 E.00459
;WIDTH:0.508598
G1 X90.296 Y99.47 E.00421
;WIDTH:0.496533
G1 X90.281 Y99.738 E.0108
;WIDTH:0.525148
G1 X90.266 Y100.005 E.01148
G1 E-.7 F5400
;WIPE_START
G1 F3000
G1 X90.037 Y99.74 E-.04998
G1 X89.807 Y99.475 E-.04998
G1 X89.909 Y99.374 E-.02045
G1 X90.011 Y99.273 E-.02045
G1 X90.113 Y99.172 E-.02045
G1 X90.215 Y99.071 E-.02045
G1 X90.235 Y99.17 E-.01452
G1 X90.255 Y99.27 E-.01452
G1 X90.276 Y99.37 E-.01452
G1 X90.296 Y99.47 E-.01452
G1 X90.281 Y99.738 E-.0382
G1 X90.278 Y99.786 E-.00693
;WIPE_END
G1 E-.015 F5400
G1 X79.015 Y99.225 F30000
G1 E1 F5400
;WIDTH:0.499999
G1 F3000
G1 X79.224 Y99.186 E.0086
G1 X79.684 Y98.932 E.02132
G1 X79.983 Y98.515 E.02083
