; HEADER_BLOCK_START
; generated by OrcaSlicer 1.6.3 on 2023-07-22 at 16:27:03
; total layer number: 0
; HEADER_BLOCK_END

; THUMBNAIL_BLOCK_START
; THUMBNAIL_BLOCK_END

; external perimeters extrusion width = 0.42mm
; perimeters extrusion width = 0.45mm
; infill extrusion width = 0.45mm
; solid infill extrusion width = 0.42mm
; top infill extrusion width = 0.42mm
; first layer extrusion width = 0.50mm

; EXECUTABLE_BLOCK_START
EXCLUDE_OBJECT_DEFINE NAME=pressure_advance_test.stl_id_0_copy_0 CENTER=110,110 POLYGON=[[76.0135,115.014],[76.0362,104.686],[76.0588,104.32],[76.1248,103.969],[76.2688,103.645],[76.4645,103.337],[76.7086,103.133],[76.973,102.978],[77.2705,102.9],[77.5874,102.867],[110.21,102.939],[131.381,102.985],[141.244,103.007],[141.761,103.024],[142.271,103.077],[142.768,103.199],[143.256,103.368],[143.554,103.561],[143.683,103.67],[143.79,103.794],[143.868,103.937],[143.921,104.097],[143.986,104.443],[143.165,112.23],[143.139,112.449],[143.08,112.655],[140.942,116.21],[140.83,116.367],[140.698,116.513],[140.478,116.681],[140.243,116.814],[139.983,116.886],[139.709,116.92],[92.4568,117.133],[77.9138,116.868],[77.5253,116.848],[77.1518,116.782],[76.8059,116.634],[76.4789,116.427],[76.2586,116.111],[76.1004,115.773],[76.0324,115.402],[76.0135,115.014]]
M73 P0 R3
;TYPE:Custom
M190 S60
M109 S200
PRINT_START EXTRUDER=200 BED=60
G28 ; h1ome all axes
 M117 ;Purge extruder
 G92 E0 ; reset extruder
 G1 Z1.0 F3000 ; move z up little to prevent scratching of surface
 G1 X2 Y20 Z0.3 F5000.0 ; move to start-line position
 G1 X2 Y175.0 Z0.3 F1500.0 E15 ; draw 1st line
 G1 X2 Y175.0 Z0.4 F5000.0 ; move to side a little
M73 P2 R3
 G1 X2 Y20 Z0.4 F1500.0 E30 ; draw 2nd line
 G92 E0 ; reset extruder
 G1 Z1.0 F3000 ; move z up little to prevent scratching of surface
G90
G21
M83 ; use relative distances for extrusion
; filament start gcode
M204 S3000
SET_VELOCITY_LIMIT SQUARE_CORNER_VELOCITY=1
M73 P5 R3
G1 Z.2 F21000
G1 E-1 F5400
G1 X53 Y178.5 F21000
G1 E1 F5400
M73 P6 R3
G1 F1200
G1 X53 Y28 E8.91687
SET_PRESSURE_ADVANCE ADVANCE=0; Override pressure advance value
G1 E-1 F5400
M73 P9 R3
G1 X55 Y17.5 F21000
G1 E1 F5400
G1 F1200
G1 X75 Y17.5 E.92643
G1 F6462.272
M73 P10 R3
G1 X115 Y17.5 E1.85286
G1 F1200
G1 X135 Y17.5 E.92643
SET_PRESSURE_ADVANCE ADVANCE=0.002; Override pressure advance value
G1 E-1 F5400
G1 X55 Y21 F21000
G1 E1 F5400
M73 P11 R3
G1 F1200
G1 X75 Y21 E.92643
G1 F6462.272
G1 X115 Y21 E1.85286
G1 F1200
G1 X135 Y21 E.92643
SET_PRESSURE_ADVANCE ADVANCE=0.004; Override pressure advance value
G1 E-1 F5400
M73 P12 R3
G1 X55 Y24.5 F21000
G1 E1 F5400
G1 F1200
G1 X75 Y24.5 E.92643
G1 F6462.272
G1 X115 Y24.5 E1.85286
G1 F1200
G1 X135 Y24.5 E.92643
SET_PRESSURE_ADVANCE ADVANCE=0.006; Override pressure advance value
G1 E-1 F5400
M73 P13 R3
G1 X55 Y28 F21000
G1 E1 F5400
G1 F1200
G1 X75 Y28 E.92643
G1 F6462.272
M73 P14 R3
G1 X115 Y28 E1.85286
G1 F1200
G1 X135 Y28 E.92643
SET_PRESSURE_ADVANCE ADVANCE=0.008; Override pressure advance value
G1 E-1 F5400
G1 X55 Y31.5 F21000
G1 E1 F5400
G1 F1200
G1 X75 Y31.5 E.92643
G1 F6462.272
M73 P15 R3
G1 X115 Y31.5 E1.85286
G1 F1200
G1 X135 Y31.5 E.92643
SET_PRESSURE_ADVANCE ADVANCE=0.01; Override pressure advance value
G1 E-1 F5400
M73 P16 R3
G1 X55 Y35 F21000
G1 E1 F5400
G1 F1200
G1 X75 Y35 E.92643
G1 F6462.272
G1 X115 Y35 E1.85286
G1 F1200
G1 X135 Y35 E.92643
SET_PRESSURE_ADVANCE ADVANCE=0.012; Override pressure advance value
G1 E-1 F5400
M73 P17 R3
G1 X55 Y38.5 F21000
G1 E1 F5400
G1 F1200
G1 X75 Y38.5 E.92643
G1 F6462.272
G1 X115 Y38.5 E1.85286
G1 F1200
M73 P18 R3
G1 X135 Y38.5 E.92643
SET_PRESSURE_ADVANCE ADVANCE=0.014; Override pressure advance value
G1 E-1 F5400
M73 P18 R2
G1 X55 Y42 F21000
G1 E1 F5400
G1 F1200
G1 X75 Y42 E.92643
G1 F6462.272
M73 P19 R2
G1 X115 Y42 E1.85286
G1 F1200
G1 X135 Y42 E.92643
SET_PRESSURE_ADVANCE ADVANCE=0.016; Override pressure advance value
G1 E-1 F5400
G1 X55 Y45.5 F21000
G1 E1 F5400
M73 P20 R2
G1 F1200
G1 X75 Y45.5 E.92643
G1 F6462.272
G1 X115 Y45.5 E1.85286
G1 F1200
G1 X135 Y45.5 E.92643
SET_PRESSURE_ADVANCE ADVANCE=0.018; Override pressure advance value
G1 E-1 F5400
M73 P21 R2
G1 X55 Y49 F21000
G1 E1 F5400
G1 F1200
G1 X75 Y49 E.92643
G1 F6462.272
G1 X115 Y49 E1.85286
G1 F1200
M73 P22 R2
G1 X135 Y49 E.92643
SET_PRESSURE_ADVANCE ADVANCE=0.02; Override pressure advance value
G1 E-1 F5400
G1 X55 Y52.5 F21000
G1 E1 F5400
G1 F1200
G1 X75 Y52.5 E.92643
G1 F6462.272
M73 P23 R2
G1 X115 Y52.5 E1.85286
G1 F1200
G1 X135 Y52.5 E.92643
SET_PRESSURE_ADVANCE ADVANCE=0.022; Override pressure advance value
G1 E-1 F5400
G1 X55 Y56 F21000
G1 E1 F5400
G1 F1200
G1 X75 Y56 E.92643
G1 F6462.272
M73 P24 R2
G1 X115 Y56 E1.85286
G1 F1200
G1 X135 Y56 E.92643
SET_PRESSURE_ADVANCE ADVANCE=0.024; Override pressure advance value
G1 E-1 F5400
M73 P25 R2
G1 X55 Y59.5 F21000
G1 E1 F5400
G1 F1200
G1 X75 Y59.5 E.92643
G1 F6462.272
G1 X115 Y59.5 E1.85286
G1 F1200
G1 X135 Y59.5 E.92643
SET_PRESSURE_ADVANCE ADVANCE=0.026; Override pressure advance value
G1 E-1 F5400
M73 P26 R2
G1 X55 Y63 F21000
G1 E1 F5400
G1 F1200
G1 X75 Y63 E.92643
G1 F6462.272
M73 P27 R2
G1 X115 Y63 E1.85286
G1 F1200
G1 X135 Y63 E.92643
SET_PRESSURE_ADVANCE ADVANCE=0.028; Override pressure advance value
G1 E-1 F5400
G1 X55 Y66.5 F21000
G1 E1 F5400
G1 F1200
G1 X75 Y66.5 E.92643
G1 F6462.272
M73 P28 R2
G1 X115 Y66.5 E1.85286
G1 F1200
G1 X135 Y66.5 E.92643
SET_PRESSURE_ADVANCE ADVANCE=0.03; Override pressure advance value
G1 E-1 F5400
G1 X55 Y70 F21000
G1 E1 F5400
M73 P29 R2
G1 F1200
G1 X75 Y70 E.92643
G1 F6462.272
G1 X115 Y70 E1.85286
G1 F1200
G1 X135 Y70 E.92643
SET_PRESSURE_ADVANCE ADVANCE=0.032; Override pressure advance value
G1 E-1 F5400
M73 P30 R2
G1 X55 Y73.5 F21000
G1 E1 F5400
G1 F1200
G1 X75 Y73.5 E.92643
G1 F6462.272
G1 X115 Y73.5 E1.85286
G1 F1200
M73 P31 R2
G1 X135 Y73.5 E.92643
SET_PRESSURE_ADVANCE ADVANCE=0.034; Override pressure advance value
G1 E-1 F5400
G1 X55 Y77 F21000
G1 E1 F5400
G1 F1200
G1 X75 Y77 E.92643
G1 F6462.272
M73 P32 R2
G1 X115 Y77 E1.85286
G1 F1200
G1 X135 Y77 E.92643
SET_PRESSURE_ADVANCE ADVANCE=0.036; Override pressure advance value
G1 E-1 F5400
G1 X55 Y80.5 F21000
G1 E1 F5400
M73 P33 R2
G1 F1200
G1 X75 Y80.5 E.92643
G1 F6462.272
G1 X115 Y80.5 E1.85286
G1 F1200
G1 X135 Y80.5 E.92643
SET_PRESSURE_ADVANCE ADVANCE=0.038; Override pressure advance value
G1 E-1 F5400
M73 P34 R2
G1 X55 Y84 F21000
G1 E1 F5400
G1 F1200
G1 X75 Y84 E.92643
G1 F6462.272
G1 X115 Y84 E1.85286
G1 F1200
G1 X135 Y84 E.92643
SET_PRESSURE_ADVANCE ADVANCE=0.04; Override pressure advance value
G1 E-1 F5400
M73 P35 R2
G1 X55 Y87.5 F21000
G1 E1 F5400
G1 F1200
G1 X75 Y87.5 E.92643
G1 F6462.272
M73 P36 R2
G1 X115 Y87.5 E1.85286
G1 F1200
G1 X135 Y87.5 E.92643
SET_PRESSURE_ADVANCE ADVANCE=0.042; Override pressure advance value
G1 E-1 F5400
G1 X55 Y91 F21000
G1 E1 F5400
G1 F1200
G1 X75 Y91 E.92643
G1 F6462.272
M73 P37 R2
G1 X115 Y91 E1.85286
G1 F1200
G1 X135 Y91 E.92643
SET_PRESSURE_ADVANCE ADVANCE=0.044; Override pressure advance value
G1 E-1 F5400
M73 P38 R2
G1 X55 Y94.5 F21000
G1 E1 F5400
G1 F1200
G1 X75 Y94.5 E.92643
G1 F6462.272
G1 X115 Y94.5 E1.85286
G1 F1200
G1 X135 Y94.5 E.92643
SET_PRESSURE_ADVANCE ADVANCE=0.046; Override pressure advance value
G1 E-1 F5400
M73 P39 R2
G1 X55 Y98 F21000
G1 E1 F5400
G1 F1200
G1 X75 Y98 E.92643
G1 F6462.272
G1 X115 Y98 E1.85286
G1 F1200
M73 P40 R2
G1 X135 Y98 E.92643
SET_PRESSURE_ADVANCE ADVANCE=0.048; Override pressure advance value
G1 E-1 F5400
G1 X55 Y101.5 F21000
G1 E1 F5400
G1 F1200
G1 X75 Y101.5 E.92643
G1 F6462.272
M73 P41 R2
G1 X115 Y101.5 E1.85286
G1 F1200
G1 X135 Y101.5 E.92643
SET_PRESSURE_ADVANCE ADVANCE=0.05; Override pressure advance value
G1 E-1 F5400
G1 X55 Y105 F21000
G1 E1 F5400
M73 P42 R2
G1 F1200
G1 X75 Y105 E.92643
G1 F6462.272
G1 X115 Y105 E1.85286
G1 F1200
G1 X135 Y105 E.92643
SET_PRESSURE_ADVANCE ADVANCE=0.052; Override pressure advance value
G1 E-1 F5400
M73 P43 R2
G1 X55 Y108.5 F21000
G1 E1 F5400
G1 F1200
G1 X75 Y108.5 E.92643
G1 F6462.272
G1 X115 Y108.5 E1.85286
G1 F1200
M73 P44 R2
G1 X135 Y108.5 E.92643
SET_PRESSURE_ADVANCE ADVANCE=0.054; Override pressure advance value
G1 E-1 F5400
G1 X55 Y112 F21000
G1 E1 F5400
G1 F1200
G1 X75 Y112 E.92643
G1 F6462.272
M73 P45 R2
G1 X115 Y112 E1.85286
G1 F1200
G1 X135 Y112 E.92643
SET_PRESSURE_ADVANCE ADVANCE=0.056; Override pressure advance value
G1 E-1 F5400
M73 P45 R1
G1 X55 Y115.5 F21000
G1 E1 F5400
M73 P46 R1
G1 F1200
G1 X75 Y115.5 E.92643
G1 F6462.272
G1 X115 Y115.5 E1.85286
G1 F1200
G1 X135 Y115.5 E.92643
SET_PRESSURE_ADVANCE ADVANCE=0.058; Override pressure advance value
G1 E-1 F5400
M73 P47 R1
G1 X55 Y119 F21000
G1 E1 F5400
G1 F1200
G1 X75 Y119 E.92643
G1 F6462.272
G1 X115 Y119 E1.85286
G1 F1200
G1 X135 Y119 E.92643
SET_PRESSURE_ADVANCE ADVANCE=0.06; Override pressure advance value
G1 E-1 F5400
M73 P48 R1
G1 X55 Y122.5 F21000
G1 E1 F5400
G1 F1200
G1 X75 Y122.5 E.92643
G1 F6462.272
M73 P49 R1
G1 X115 Y122.5 E1.85286
G1 F1200
G1 X135 Y122.5 E.92643
SET_PRESSURE_ADVANCE ADVANCE=0.062; Override pressure advance value
G1 E-1 F5400
G1 X55 Y126 F21000
G1 E1 F5400
G1 F1200
G1 X75 Y126 E.92643
G1 F6462.272
M73 P50 R1
G1 X115 Y126 E1.85286
G1 F1200
G1 X135 Y126 E.92643
SET_PRESSURE_ADVANCE ADVANCE=0.064; Override pressure advance value
G1 E-1 F5400
M73 P51 R1
G1 X55 Y129.5 F21000
G1 E1 F5400
G1 F1200
G1 X75 Y129.5 E.92643
G1 F6462.272
G1 X115 Y129.5 E1.85286
G1 F1200
G1 X135 Y129.5 E.92643
SET_PRESSURE_ADVANCE ADVANCE=0.066; Override pressure advance value
G1 E-1 F5400
M73 P52 R1
G1 X55 Y133 F21000
G1 E1 F5400
G1 F1200
G1 X75 Y133 E.92643
G1 F6462.272
G1 X115 Y133 E1.85286
G1 F1200
M73 P53 R1
G1 X135 Y133 E.92643
SET_PRESSURE_ADVANCE ADVANCE=0.068; Override pressure advance value
G1 E-1 F5400
G1 X55 Y136.5 F21000
G1 E1 F5400
G1 F1200
G1 X75 Y136.5 E.92643
G1 F6462.272
M73 P54 R1
G1 X115 Y136.5 E1.85286
G1 F1200
G1 X135 Y136.5 E.92643
SET_PRESSURE_ADVANCE ADVANCE=0.07; Override pressure advance value
G1 E-1 F5400
G1 X55 Y140 F21000
G1 E1 F5400
M73 P55 R1
G1 F1200
G1 X75 Y140 E.92643
G1 F6462.272
G1 X115 Y140 E1.85286
G1 F1200
G1 X135 Y140 E.92643
SET_PRESSURE_ADVANCE ADVANCE=0.072; Override pressure advance value
G1 E-1 F5400
M73 P56 R1
G1 X55 Y143.5 F21000
G1 E1 F5400
G1 F1200
G1 X75 Y143.5 E.92643
G1 F6462.272
G1 X115 Y143.5 E1.85286
G1 F1200
M73 P57 R1
G1 X135 Y143.5 E.92643
SET_PRESSURE_ADVANCE ADVANCE=0.074; Override pressure advance value
G1 E-1 F5400
G1 X55 Y147 F21000
G1 E1 F5400
G1 F1200
G1 X75 Y147 E.92643
G1 F6462.272
M73 P58 R1
G1 X115 Y147 E1.85286
G1 F1200
G1 X135 Y147 E.92643
SET_PRESSURE_ADVANCE ADVANCE=0.076; Override pressure advance value
G1 E-1 F5400
G1 X55 Y150.5 F21000
G1 E1 F5400
G1 F1200
G1 X75 Y150.5 E.92643
G1 F6462.272
M73 P59 R1
G1 X115 Y150.5 E1.85286
G1 F1200
G1 X135 Y150.5 E.92643
SET_PRESSURE_ADVANCE ADVANCE=0.078; Override pressure advance value
G1 E-1 F5400
M73 P60 R1
G1 X55 Y154 F21000
G1 E1 F5400
G1 F1200
G1 X75 Y154 E.92643
G1 F6462.272
G1 X115 Y154 E1.85286
G1 F1200
G1 X135 Y154 E.92643
SET_PRESSURE_ADVANCE ADVANCE=0.08; Override pressure advance value
G1 E-1 F5400
M73 P61 R1
G1 X55 Y157.5 F21000
G1 E1 F5400
G1 F1200
G1 X75 Y157.5 E.92643
G1 F6462.272
M73 P62 R1
G1 X115 Y157.5 E1.85286
G1 F1200
G1 X135 Y157.5 E.92643
SET_PRESSURE_ADVANCE ADVANCE=0.082; Override pressure advance value
G1 E-1 F5400
G1 X55 Y161 F21000
G1 E1 F5400
G1 F1200
G1 X75 Y161 E.92643
G1 F6462.272
M73 P63 R1
G1 X115 Y161 E1.85286
G1 F1200
G1 X135 Y161 E.92643
SET_PRESSURE_ADVANCE ADVANCE=0.084; Override pressure advance value
G1 E-1 F5400
G1 X55 Y164.5 F21000
G1 E1 F5400
M73 P64 R1
G1 F1200
G1 X75 Y164.5 E.92643
G1 F6462.272
G1 X115 Y164.5 E1.85286
G1 F1200
G1 X135 Y164.5 E.92643
SET_PRESSURE_ADVANCE ADVANCE=0.086; Override pressure advance value
G1 E-1 F5400
M73 P65 R1
G1 X55 Y168 F21000
G1 E1 F5400
G1 F1200
G1 X75 Y168 E.92643
G1 F6462.272
G1 X115 Y168 E1.85286
G1 F1200
M73 P66 R1
G1 X135 Y168 E.92643
SET_PRESSURE_ADVANCE ADVANCE=0.088; Override pressure advance value
G1 E-1 F5400
G1 X55 Y171.5 F21000
G1 E1 F5400
G1 F1200
G1 X75 Y171.5 E.92643
G1 F6462.272
M73 P67 R1
G1 X115 Y171.5 E1.85286
G1 F1200
G1 X135 Y171.5 E.92643
SET_PRESSURE_ADVANCE ADVANCE=0.09; Override pressure advance value
G1 E-1 F5400
G1 X55 Y175 F21000
G1 E1 F5400
M73 P68 R1
G1 F1200
G1 X75 Y175 E.92643
G1 F6462.272
G1 X115 Y175 E1.85286
G1 F1200
G1 X135 Y175 E.92643
SET_PRESSURE_ADVANCE ADVANCE=0.092; Override pressure advance value
G1 E-1 F5400
M73 P69 R1
G1 X55 Y178.5 F21000
G1 E1 F5400
G1 F1200
G1 X75 Y178.5 E.92643
G1 F6462.272
G1 X115 Y178.5 E1.85286
G1 F1200
G1 X135 Y178.5 E.92643
SET_PRESSURE_ADVANCE ADVANCE=0.094; Override pressure advance value
G1 E-1 F5400
M73 P70 R1
G1 X55 Y182 F21000
G1 E1 F5400
G1 F1200
G1 X75 Y182 E.92643
G1 F6462.272
M73 P71 R1
G1 X115 Y182 E1.85286
G1 F1200
G1 X135 Y182 E.92643
SET_PRESSURE_ADVANCE ADVANCE=0.096; Override pressure advance value
G1 E-1 F5400
G1 X55 Y185.5 F21000
G1 E1 F5400
G1 F1200
G1 X75 Y185.5 E.92643
G1 F6462.272
M73 P72 R1
G1 X115 Y185.5 E1.85286
G1 F1200
G1 X135 Y185.5 E.92643
SET_PRESSURE_ADVANCE ADVANCE=0.098; Override pressure advance value
G1 E-1 F5400
M73 P73 R0
G1 X55 Y189 F21000
G1 E1 F5400
G1 F1200
G1 X75 Y189 E.92643
G1 F6462.272
G1 X115 Y189 E1.85286
G1 F1200
G1 X135 Y189 E.92643
SET_PRESSURE_ADVANCE ADVANCE=0; Override pressure advance value
G1 F6462.272
M73 P74 R0
G1 E-1 F5400
G1 X75 Y191 F21000
G1 E1 F5400
G1 X75 Y196 E.23112
G1 E-1 F5400
G1 X115 Y196 F21000
G1 E1 F5400
G1 X115 Y191 E.23112
G1 F3600
G1 E-1 F5400
G1 X138 Y19.25 F21000
G1 E1 F5400
M73 P75 R0
G1 X140 Y19.25 E.07269
G1 X140 Y15.25 E.14537
G1 X138 Y15.25 E.07269
G1 X138 Y19.01 E.14537
G1 F3600
G1 E-1 F5400
G1 X138 Y26.25 F21000
G1 E1 F5400
G1 X140 Y26.25 E.07269
G1 X140 Y22.25 E.14537
G1 X138 Y22.25 E.07269
G1 X138 Y26.01 E.14537
G1 E-1 F5400
G1 X142 Y22.25 F21000
G1 E1 F5400
G1 X142 Y23.25 E.07269
G1 E-1 F5400
G1 X144 Y26.25 F21000
G1 E1 F5400
G1 X146 Y26.25 E.07269
G1 X146 Y22.25 E.14537
G1 X144 Y22.25 E.07269
G1 X144 Y26.01 E.14537
G1 E-1 F5400
G1 X147 Y26.25 F21000
G1 E1 F5400
G1 X149 Y26.25 E.07269
G1 X149 Y22.25 E.14537
G1 X147 Y22.25 E.07269
G1 X147 Y26.01 E.14537
G1 E-1 F5400
G1 X150 Y26.25 F21000
G1 E1 F5400
G1 X150 Y24.25 E.07269
G1 X152 Y24.25 E.07269
G1 E-1 F5400
G1 X152 Y26.25 F21000
G1 E1 F5400
G1 X152 Y22.25 E.14537
G1 F3600
M73 P76 R0
G1 E-1 F5400
G1 X138 Y33.25 F21000
G1 E1 F5400
G1 X140 Y33.25 E.07269
G1 X140 Y29.25 E.14537
G1 X138 Y29.25 E.07269
G1 X138 Y33.01 E.14537
G1 E-1 F5400
G1 X142 Y29.25 F21000
G1 E1 F5400
G1 X142 Y30.25 E.07269
G1 E-1 F5400
G1 X144 Y33.25 F21000
G1 E1 F5400
G1 X146 Y33.25 E.07269
G1 X146 Y29.25 E.14537
G1 X144 Y29.25 E.07269
G1 X144 Y33.01 E.14537
G1 E-1 F5400
G1 X147 Y33.25 F21000
G1 E1 F5400
G1 X149 Y33.25 E.07269
G1 X149 Y29.25 E.14537
G1 X147 Y29.25 E.07269
G1 X147 Y33.01 E.14537
G1 E-1 F5400
G1 X152 Y31.25 F21000
G1 E1 F5400
G1 X150 Y31.25 E.07269
G1 X150 Y29.25 E.07269
G1 X152 Y29.25 E.07269
G1 X152 Y33.25 E.14537
G1 X150 Y33.25 E.07269
G1 X150 Y31.25 E.07269
G1 F3600
G1 E-1 F5400
G1 X138 Y40.25 F21000
G1 E1 F5400
M73 P77 R0
G1 X140 Y40.25 E.07269
G1 X140 Y36.25 E.14537
G1 X138 Y36.25 E.07269
G1 X138 Y40.01 E.14537
G1 E-1 F5400
G1 X142 Y36.25 F21000
G1 E1 F5400
G1 X142 Y37.25 E.07269
G1 E-1 F5400
G1 X144 Y40.25 F21000
G1 E1 F5400
G1 X146 Y40.25 E.07269
G1 X146 Y36.25 E.14537
G1 X144 Y36.25 E.07269
G1 X144 Y40.01 E.14537
G1 E-1 F5400
G1 X148 Y40.25 F21000
G1 E1 F5400
G1 X148 Y36.25 E.14537
G1 E-1 F5400
G1 X150 Y40.25 F21000
G1 E1 F5400
G1 X152 Y40.25 E.07269
G1 X152 Y38.25 E.07269
G1 X150 Y38.25 E.07269
G1 X150 Y36.25 E.07269
G1 X152 Y36.25 E.07269
G1 F3600
G1 E-1 F5400
G1 X138 Y47.25 F21000
G1 E1 F5400
G1 X140 Y47.25 E.07269
G1 X140 Y43.25 E.14537
G1 X138 Y43.25 E.07269
G1 X138 Y47.01 E.14537
G1 E-1 F5400
G1 X142 Y43.25 F21000
G1 E1 F5400
M73 P78 R0
G1 X142 Y44.25 E.07269
G1 E-1 F5400
G1 X144 Y47.25 F21000
G1 E1 F5400
G1 X146 Y47.25 E.07269
G1 X146 Y43.25 E.14537
G1 X144 Y43.25 E.07269
G1 X144 Y47.01 E.14537
G1 E-1 F5400
G1 X148 Y47.25 F21000
G1 E1 F5400
G1 X148 Y43.25 E.14537
G1 E-1 F5400
G1 X152 Y47.25 F21000
G1 E1 F5400
G1 X150 Y47.25 E.07269
